other/set-up-ci-cd.svg

<svg width="281px" height="98px" viewBox="0 0 281 124" version="1.1" xmlns="http://www.w3.org/2000/svg" xmlns:xlink="http://www.w3.org/1999/xlink">
    <g stroke="none" stroke-width="1" fill="none" fill-rule="evenodd">
        <g>
            <polygon fill="#D7E8F6" points="246.9193 52.6032 235.6803 59.3702 240.9623 78.9792 244.8613 74.1632 249.2203 87.2372 253.4633 70.2632 257.4773 74.6222 260.4513 58.2222"></polygon>
            <path d="M163.9056,105.2985 L124.0486,105.2985 L124.0486,73.3425 L164.8076,73.3425 L164.8076,104.3965 C164.8076,104.8945 164.4036,105.2985 163.9056,105.2985 M109.8626,104.3965 L109.8626,77.2985 L123.2446,77.2985 L123.2446,105.2985 L110.7646,105.2985 C110.2656,105.2985 109.8626,104.8945 109.8626,104.3965 M110.7626,67.9805 L163.9046,67.9015 C164.4036,67.9005 164.8076,68.3045 164.8076,68.8035 L164.8076,72.5385 L109.8626,72.5385 L109.8626,68.8825 C109.8626,68.3845 110.2656,67.9815 110.7626,67.9805 M165.8196,63.0005 L109.3766,63.0005 C106.9336,63.0005 104.9536,64.9815 104.9536,67.4235 L104.9536,106.6225 C104.9536,108.5545 106.5246,110.2765 108.4736,110.2765 L129.3466,110.2765 C131.4096,117.5505 128.7556,118.7485 117.0746,118.8035 C116.9626,118.8035 116.8556,118.8305 116.7566,118.8675 C116.5766,118.9355 116.4336,119.0605 116.3296,119.2185 C116.2336,119.3605 116.1636,119.5215 116.1636,119.7035 L116.1636,121.8125 C116.1636,122.3105 116.5676,122.7145 117.0656,122.7145 L117.0676,122.7145 L157.6166,122.7145 L157.6186,122.7145 C158.1166,122.7145 158.5206,122.3105 158.5206,121.8125 L158.5206,119.7075 C158.5206,119.2095 158.1166,118.8055 157.6186,118.8055 L157.6086,118.8055 L157.6066,118.8055 C146.0086,118.7485 144.8966,117.5545 146.9626,110.2765 L164.9186,110.2765 C167.5666,110.2765 169.7336,108.1085 169.7336,105.4595 L169.7336,66.6855 C169.7336,64.7365 167.7636,63.0005 165.8196,63.0005" fill="#0078D7"></path>
            <polygon fill="#0078D7" points="128.673 79.974 160.173 79.974 160.173 78.139 128.673 78.139"></polygon>
            <polygon fill="#0078D7" points="128.673 86.549 160.173 86.549 160.173 84.714 128.673 84.714"></polygon>
            <polygon fill="#0078D7" points="128.673 93.202 150.539 93.202 150.539 91.367 128.673 91.367"></polygon>
            <path d="M58.9525,105.2985 L19.0955,105.2985 L19.0955,73.3425 L59.8545,73.3425 L59.8545,104.3965 C59.8545,104.8945 59.4505,105.2985 58.9525,105.2985 M4.9085,104.3965 L4.9085,77.2985 L18.2905,77.2985 L18.2905,105.2985 L5.8105,105.2985 C5.3125,105.2985 4.9085,104.8945 4.9085,104.3965 M5.8095,67.9805 L58.9505,67.9015 C59.4495,67.9005 59.8545,68.3045 59.8545,68.8035 L59.8545,72.5385 L4.9085,72.5385 L4.9085,68.8825 C4.9085,68.3845 5.3115,67.9815 5.8095,67.9805 M60.8665,63.0005 L4.4225,63.0005 C1.9795,63.0005 0.0005,64.9815 0.0005,67.4235 L0.0005,106.6225 C0.0005,108.5545 1.5705,110.2765 3.5195,110.2765 L24.3935,110.2765 C26.4555,117.5505 23.8025,118.7485 12.1205,118.8035 C12.0105,118.8035 11.9055,118.8305 11.8065,118.8665 C11.6245,118.9345 11.4795,119.0605 11.3745,119.2205 C11.2795,119.3615 11.2105,119.5225 11.2105,119.7035 L11.2105,121.8125 C11.2105,122.3105 11.6135,122.7145 12.1115,122.7145 L12.1135,122.7145 L52.6635,122.7145 L52.6655,122.7145 C53.1635,122.7145 53.5665,122.3105 53.5665,121.8125 L53.5665,119.7075 C53.5665,119.2095 53.1635,118.8055 52.6655,118.8055 L52.6555,118.8055 L52.6525,118.8055 C41.0555,118.7485 39.9435,117.5545 42.0085,110.2765 L59.9645,110.2765 C62.6135,110.2765 64.7805,108.1085 64.7805,105.4595 L64.7805,66.6855 C64.7805,64.7365 62.8105,63.0005 60.8665,63.0005" fill="#0078D7"></path>
            <polygon fill="#0078D7" points="23.719 79.974 55.22 79.974 55.22 78.139 23.719 78.139"></polygon>
            <polygon fill="#0078D7" points="23.719 86.549 55.22 86.549 55.22 84.714 23.719 84.714"></polygon>
            <polygon fill="#0078D7" points="23.719 93.202 45.586 93.202 45.586 91.367 23.719 91.367"></polygon>
            <polygon fill="#ACD1EF" points="246.804 55.0114 240.159 58.4504 243.142 68.7724 245.78 66.5934 248.532 73.4744 250.94 63.3824 254.61 67.6254 255.749 58.3374"></polygon>
            <polygon fill="#0078D7" points="239.395 16.974 270.895 16.974 270.895 15.139 239.395 15.139"></polygon>
            <polygon fill="#0078D7" points="239.395 23.55 270.895 23.55 270.895 21.715 239.395 21.715"></polygon>
            <polygon fill="#0078D7" points="239.395 30.201 261.261 30.201 261.261 28.366 239.395 28.366"></polygon>
            <path d="M275.5296,9.5378 L220.5846,9.5378 L220.5846,5.8818 C220.5846,5.3848 220.9876,4.9798 221.4856,4.9788 L274.6266,4.8998 C275.1256,4.8998 275.5296,5.3048 275.5296,5.8028 L275.5296,9.5378 Z M275.5296,41.3958 C275.5296,41.8938 275.1266,42.2978 274.6286,42.2978 L234.7706,42.2978 L234.7706,10.3418 L275.5296,10.3418 L275.5296,41.3958 Z M263.8246,59.7138 L259.1856,84.8648 L255.9136,79.7648 C255.8186,79.6158 255.6476,79.5348 255.4746,79.5568 C255.3006,79.5758 255.1526,79.6938 255.0946,79.8588 L249.1306,96.8208 L244.1916,84.3168 C244.1396,84.1848 244.0286,84.0838 243.8916,84.0448 C243.8496,84.0328 243.8076,84.0268 243.7646,84.0268 C243.6686,84.0268 243.5736,84.0578 243.4936,84.1148 L238.8856,87.4948 L232.1386,60.0618 L232.7806,59.7138 L263.8246,59.7138 Z M220.5846,41.3958 L220.5846,14.2978 L233.9666,14.2978 L233.9666,42.2978 L221.4866,42.2978 C220.9886,42.2978 220.5846,41.8938 220.5846,41.3958 Z M276.5426,0.0008 L220.0976,0.0008 C217.6556,0.0008 215.6756,1.9798 215.6756,4.4228 L215.6756,43.6218 C215.6756,45.5548 217.2466,47.2748 219.1956,47.2748 L240.0696,47.2748 C242.1316,54.5498 239.4766,55.7478 227.7966,55.8028 C227.6856,55.8038 227.5816,55.8298 227.4826,55.8668 C227.3006,55.9338 227.1556,56.0598 227.0506,56.2198 C226.9546,56.3608 226.8846,56.5208 226.8846,56.7038 L226.8846,58.8108 C226.8846,59.3088 227.2896,59.7138 227.7876,59.7138 L227.7896,59.7138 L231.1706,59.7138 C231.1516,59.7858 231.1436,59.8608 231.1636,59.9378 L238.1586,88.3798 C238.1956,88.5278 238.3036,88.6488 238.4476,88.7008 C238.5916,88.7538 238.7516,88.7298 238.8756,88.6408 L243.5566,85.2068 L248.7286,98.3018 C248.7986,98.4768 248.9676,98.5918 249.1556,98.5918 L249.1646,98.5918 C249.3546,98.5888 249.5246,98.4658 249.5886,98.2858 L255.6486,81.0508 L259.0406,86.3378 C259.1426,86.4968 259.3336,86.5788 259.5156,86.5408 C259.7006,86.5038 259.8426,86.3578 259.8786,86.1738 L264.7576,59.7138 L268.3396,59.7138 L268.3406,59.7138 C268.8386,59.7138 269.2426,59.3088 269.2426,58.8108 L269.2426,56.7068 C269.2426,56.2088 268.8386,55.8048 268.3406,55.8048 L268.3316,55.8048 L268.3286,55.8048 C256.7296,55.7478 255.6186,54.5538 257.6836,47.2748 L275.6396,47.2748 C278.2886,47.2748 280.4556,45.1078 280.4556,42.4588 L280.4556,3.6838 C280.4556,1.7368 278.4866,0.0008 276.5426,0.0008 Z" fill="#0078D7"></path>
            <polygon fill="#0078D7" points="225.581 123.028 270.55 123.028 270.55 120.794 225.581 120.794"></polygon>
        </g>
    </g>
</svg>

<svg width="281" height="98" viewBox="0 0 281 124" xmlns="http://www.w3.org/2000/svg">
    <g fill="none" fill-rule="evenodd">
        <path fill="#D7E8F6" d="M246.92 52.603l-11.24 6.767 5.282 19.61 3.9-4.817 4.358 13.074 4.243-16.974 4.014 4.36 2.974-16.4z"/>
        <path d="M163.906 105.299h-39.857V73.341h40.759v31.055a.902.902 0 01-.902.901m-54.043-.901V77.297h13.382v28h-12.48a.902.902 0 01-.902-.901m.9-36.416l53.142-.08a.901.901 0 01.903.903v3.734h-54.945v-3.656c0-.498.403-.9.9-.901M165.82 63h-56.443a4.423 4.423 0 00-4.423 4.423v39.198c0 1.933 1.57 3.654 3.52 3.654h20.873c2.063 7.275-.591 8.473-12.272 8.528a.91.91 0 00-.745.415.863.863 0 00-.166.485v2.109c0 .498.404.901.902.901H157.619a.902.902 0 00.902-.901v-2.106a.902.902 0 00-.902-.901h-.012c-11.598-.057-12.71-1.251-10.644-8.53h17.956c2.648 0 4.815-2.167 4.815-4.816V66.686c0-1.95-1.97-3.686-3.914-3.686" fill="#0078D7"/>
        <path fill="#0078D7" d="M128.673 79.974h31.5v-1.835h-31.5zM128.673 86.549h31.5v-1.835h-31.5zM128.673 93.202h21.866v-1.835h-21.866zM58.953 105.299H19.095V73.341h40.76v31.055a.902.902 0 01-.902.901m-54.044-.901V77.297H18.29v28H5.81a.902.902 0 01-.902-.901m.9-36.416l53.142-.08a.902.902 0 01.904.903v3.734H4.909v-3.656c0-.498.402-.9.9-.901M60.867 63H4.422A4.422 4.422 0 000 67.424v39.198c0 1.933 1.57 3.654 3.52 3.654h20.873c2.063 7.275-.59 8.473-12.273 8.528a.92.92 0 00-.313.063.89.89 0 00-.433.353.863.863 0 00-.164.484v2.109c0 .498.403.901.901.901h40.555a.901.901 0 00.9-.901v-2.106a.901.901 0 00-.9-.901H52.653c-11.597-.057-12.71-1.251-10.645-8.53h17.956a4.83 4.83 0 004.817-4.816V66.686c0-1.95-1.97-3.686-3.915-3.686"/>
        <path fill="#0078D7" d="M23.719 79.974H55.22v-1.835H23.719zM23.719 86.549H55.22v-1.835H23.719zM23.719 93.202h21.867v-1.835H23.719z"/>
        <path fill="#ACD1EF" d="M246.804 55.011l-6.645 3.44 2.983 10.321 2.638-2.179 2.752 6.881 2.408-10.092 3.67 4.243 1.139-9.288z"/>
        <path fill="#0078D7" d="M239.395 16.974h31.5v-1.835h-31.5zM239.395 23.55h31.5v-1.835h-31.5zM239.395 30.201h21.866v-1.835h-21.866z"/>
        <path d="M275.53 9.538h-54.945V5.882c0-.497.403-.902.9-.903l53.142-.08c.499 0 .903.406.903.904v3.735zm0 31.858a.901.901 0 01-.901.902H234.77V10.342h40.759v31.054zm-11.705 18.318l-4.64 25.15-3.271-5.1a.454.454 0 00-.44-.207.456.456 0 00-.38.302l-5.963 16.962-4.94-12.504a.457.457 0 00-.697-.202l-4.608 3.38-6.747-27.433.642-.348h31.044zm-43.24-18.318V14.298h13.382v28h-12.48a.902.902 0 01-.902-.902zM276.543 0h-56.445a4.422 4.422 0 00-4.422 4.422v39.199c0 1.933 1.57 3.653 3.52 3.653h20.874c2.062 7.275-.593 8.473-12.273 8.528a.916.916 0 00-.746.417.855.855 0 00-.166.484v2.107c0 .498.405.903.903.903H231.17a.435.435 0 00-.006.224l6.995 28.442a.46.46 0 00.717.26l4.68-3.433 5.173 13.095a.46.46 0 00.427.29h.009a.46.46 0 00.424-.306l6.06-17.235 3.392 5.287a.458.458 0 00.838-.164l4.879-26.46h3.582a.903.903 0 00.903-.903v-2.104a.902.902 0 00-.902-.902h-.012c-11.6-.057-12.71-1.251-10.645-8.53h17.956a4.83 4.83 0 004.816-4.816V3.684c0-1.947-1.97-3.683-3.913-3.683zM225.581 123.028h44.969v-2.234h-44.969z" fill="#0078D7"/>
    </g>
</svg>
